static/images/user-logos/pollen-logo-for-rust.svg

<svg clip-rule="evenodd" fill-rule="evenodd" stroke-linejoin="round" stroke-miterlimit="1.41421" viewBox="0 0 563 264" xmlns="http://www.w3.org/2000/svg" xmlns:xlink="http://www.w3.org/1999/xlink"><clipPath id="a"><path clip-rule="evenodd" d="m0 0h618v345h-618z"/></clipPath><g transform="scale(.910935 .764476)"><path d="m0 0h618v345h-618z" fill="none"/><g clip-path="url(#a)"><g transform="matrix(1.09777 0 0 1.30809 -30.9186 -4146.99)"><path d="m0 3131.46h617.518v344.95h-617.518z" fill="none"/><g fill-rule="nonzero"><g fill="#77bbb9"><path d="m107.646 100.541-17.532 10.122c-.614.355-1.371.355-1.986 0l-17.532-10.122c-.614-.355-.993-1.011-.993-1.72v-20.244c0-.71.379-1.366.993-1.72l17.532-10.122c.615-.355 1.372-.355 1.986 0l17.532 10.122c.615.354.993 1.01.993 1.72v20.244c0 .709-.378 1.365-.993 1.72m-21.554-41.174-20.859 12.043c-1.874 1.082-3.029 3.082-3.029 5.246v24.086c0 2.164 1.155 4.164 3.029 5.246l20.859 12.043c1.875 1.082 4.184 1.082 6.058 0l20.859-12.043c1.874-1.082 3.029-3.082 3.029-5.246v-24.086c0-2.164-1.155-4.164-3.029-5.246l-20.859-12.043c-1.874-1.082-4.183-1.082-6.058 0" transform="matrix(1.1431 0 0 1.1431 262.168299 3180.044534)"/><path d="m45.465 100.528-17.579 10.149c-.6.347-1.339.347-1.939 0l-17.579-10.149c-.6-.346-.97-.987-.97-1.679v-20.299c0-.692.37-1.333.97-1.679l17.579-10.149c.6-.347 1.339-.347 1.939 0l17.579 10.149c.6.346.97.987.97 1.679v20.299c0 .692-.37 1.333-.97 1.679m-21.235-41.359-21.544 12.439c-1.662.96-2.686 2.733-2.686 4.653v44.919c0 1.919 1.024 3.693 2.686 4.653l4.712 2.72v-8.543-11.498l16.832 9.717c1.663.96 3.711.96 5.373 0l21.544-12.438c1.662-.96 2.686-2.733 2.686-4.653v-24.877c0-1.92-1.024-3.693-2.686-4.653l-21.544-12.439c-1.662-.959-3.71-.959-5.373 0" transform="matrix(1.1431 0 0 1.1431 262.168299 3180.044534)"/><path d="m131.807 57.618-4.548 2.626c-1.764 1.018-2.851 2.901-2.851 4.938v47.034c0 2.037 1.087 3.92 2.851 4.938l4.548 2.626z" transform="matrix(1.1431 0 0 1.1431 262.168299 3180.044534)"/><path d="m147.576 57.618-4.548 2.626c-1.764 1.018-2.851 2.901-2.851 4.938v47.034c0 2.037 1.087 3.92 2.851 4.938l4.548 2.626z" transform="matrix(1.1431 0 0 1.1431 262.168299 3180.044534)"/><path d="m207.052 71.584-21.461-12.391c-1.688-.974-3.768-.974-5.456 0l-21.461 12.391c-1.688.975-2.728 2.776-2.728 4.725v24.781c0 1.949 1.04 3.75 2.728 4.725l24.189 13.965v-5.399c0-1.945-1.038-3.743-2.723-4.716l-15.757-9.098c-.642-.37-1.038-1.056-1.038-1.797v-20.141c0-.742.396-1.427 1.038-1.797l17.442-10.071c.642-.371 1.434-.371 2.076 0l17.442 10.071c.643.37 1.038 1.055 1.038 1.797v6.371h-14.662c-2.67 0-4.835 2.165-4.835 4.835v2.564h26.896v-16.09c0-1.949-1.04-3.75-2.728-4.725" transform="matrix(1.1431 0 0 1.1431 262.168299 3180.044534)"/><path d="m268.449 71.366-20.518-11.846c-1.773-1.024-3.956-1.024-5.729 0l-16.654 9.615v-6.58l-4.319 2.494c-1.906 1.1-3.079 3.133-3.079 5.334v41.833c0 2.037 1.086 3.92 2.851 4.938l4.547 2.626v-40.904c0-.741.396-1.426 1.038-1.797l17.443-10.071c.642-.37 1.433-.37 2.075 0l17.443 10.071c.642.371 1.038 1.056 1.038 1.797v40.904l4.547-2.626c1.765-1.018 2.851-2.901 2.851-4.938v-34.729c0-2.525-1.347-4.858-3.534-6.121" transform="matrix(1.1431 0 0 1.1431 262.168299 3180.044534)"/><path d="m39.542 158.978h-2.699v-12.235h2.699v2.803c.628-2.174 1.834-3.066 3.354-3.066.864 0 1.78.21 2.174.472l-.445 2.489c-.682-.34-1.284-.419-1.808-.419-2.306 0-3.275 2.305-3.275 5.555z" transform="matrix(1.63978789 0 0 1.63978789 231.631089 3097.279487)"/><path d="m72.411 152.821c0-2.253-1.677-3.694-3.72-3.694-2.018 0-3.694 1.441-3.694 3.694 0 2.306 1.676 3.799 3.694 3.799 2.043 0 3.72-1.493 3.72-3.799m-10.087 0c0-3.878 2.908-6.34 6.367-6.34 3.484 0 6.419 2.462 6.419 6.34 0 3.877-2.935 6.419-6.419 6.419-3.459 0-6.367-2.542-6.367-6.419" transform="matrix(1.63978789 0 0 1.63978789 220.770501 3097.279487)"/><path d="m98.836 156.62c2.043 0 3.694-1.546 3.694-3.799s-1.651-3.72-3.694-3.72c-1.834 0-3.747 1.31-3.747 3.72 0 2.384 1.756 3.799 3.747 3.799m-6.472 2.358v-18.89h2.699v8.41c.76-1.336 2.384-2.018 4.114-2.018 3.327 0 6.104 2.463 6.104 6.394 0 3.851-2.83 6.366-6.131 6.366-1.65 0-3.327-.734-4.087-2.044v1.782z" transform="matrix(1.63978789 0 0 1.63978789 209.899857 3097.279487)"/><path d="m132.623 152.821c0-2.253-1.677-3.694-3.72-3.694-2.018 0-3.695 1.441-3.695 3.694 0 2.306 1.677 3.799 3.695 3.799 2.043 0 3.72-1.493 3.72-3.799m-10.087 0c0-3.878 2.908-6.34 6.367-6.34 3.484 0 6.419 2.462 6.419 6.34 0 3.877-2.935 6.419-6.419 6.419-3.459 0-6.367-2.542-6.367-6.419" transform="matrix(1.63978789 0 0 1.63978789 199.039269 3097.279487)"/><path d="m157.475 146.742h2.594v2.227h-2.594v10.008h-2.699v-10.008h-2.2v-2.227h2.2v-4.638h2.699z" transform="matrix(1.63978789 0 0 1.63978789 188.178681 3097.279487)"/><path d="m180.468 146.742h-2.672v12.235h2.672zm-1.336-6.654c.995 0 1.781.733 1.781 1.703 0 .969-.786 1.703-1.781 1.703-.97 0-1.808-.734-1.808-1.703 0-.97.838-1.703 1.808-1.703" transform="matrix(1.63978789 0 0 1.63978789 177.318093 3097.279487)"/><path d="m204.691 146.48c1.939 0 3.694.76 4.847 2.122l-2.096 1.677c-.655-.759-1.676-1.179-2.751-1.179-2.043 0-3.851 1.441-3.851 3.72 0 2.28 1.808 3.826 3.851 3.826 1.075 0 2.096-.446 2.751-1.205l2.123 1.65c-1.153 1.363-2.909 2.149-4.874 2.149-3.51 0-6.523-2.542-6.523-6.42 0-3.877 3.013-6.34 6.523-6.34" transform="matrix(1.63978789 0 0 1.63978789 166.457505 3097.279487)"/><path d="m227.16 149.703c.157-1.808 2.122-3.223 4.375-3.223 2.175 0 4.297.996 4.454 3.616h-2.567c-.105-.917-.943-1.31-1.782-1.31-.681 0-1.467.262-1.729.681-.21.34-.236.734-.105 1.101.158.471.839.759 1.494.942l1.886.472c2.646.655 3.196 2.332 3.196 3.564 0 2.358-2.069 3.694-4.873 3.694-2.279 0-4.637-1.441-4.69-4.009h2.489c.132 1.048.996 1.755 2.411 1.755 1.231 0 2.174-.55 2.174-1.467 0-.786-.812-1.231-1.703-1.441l-1.65-.393c-2.594-.707-3.537-2.017-3.38-3.982" transform="matrix(1.63978789 0 0 1.63978789 155.596917 3097.279487)"/></g><g transform="translate(46.21512 3189.95966)"><path d="m36.382 147.406 60.776 76.969 60.775-76.969z" fill="#6080be"/><path d="m0 168.282 97.158 56.093-60.776-76.969z" fill="#f1887f"/><path d="m97.158 224.375 97.157-56.093-36.382-20.876z" fill="#396581"/><path d="m157.933 147.406 36.382 20.876v-112.188z" fill="#fdd689"/><path d="m0 168.282 36.382-20.876-36.382-91.312z" fill="#396581"/><path d="m97.158 0-97.158 56.094 97.158-13.545z" fill="#6080be"/><path d="m97.158 0v42.549l97.157 13.545z" fill="#396581"/><path d="m0 56.094 36.382 91.312 60.776-104.857z" fill="#fdd689"/><path d="m157.933 147.406 36.382-91.312-97.157-13.545z" fill="#f1887f"/><path d="m157.933 147.406h-121.551l60.776-104.858z" fill="#77bbb9"/></g></g></g></g></g></svg>

<?xml version="1.0" encoding="UTF-8" standalone="no"?>
<!DOCTYPE svg PUBLIC "-//W3C//DTD SVG 1.1//EN" "http://www.w3.org/Graphics/SVG/1.1/DTD/svg11.dtd">
<svg width="100%" height="100%" viewBox="0 0 563 264" version="1.1" xmlns="http://www.w3.org/2000/svg" xmlns:xlink="http://www.w3.org/1999/xlink" xml:space="preserve" xmlns:serif="http://www.serif.com/" style="fill-rule:evenodd;clip-rule:evenodd;stroke-linejoin:round;stroke-miterlimit:1.41421;">
    <g id="Artboard1" transform="matrix(0.910935,0,0,0.764476,0,0)">
        <rect x="0" y="0" width="618" height="345" style="fill:none;"/>
        <clipPath id="_clip1">
            <rect x="0" y="0" width="618" height="345"/>
        </clipPath>
        <g clip-path="url(#_clip1)">
            <g id="logo_pollen-robotics_rectangle_white" transform="matrix(1.09777,0,0,1.30809,-30.9186,-4146.99)">
                <rect x="0" y="3131.46" width="617.518" height="344.95" style="fill:none;"/>
                <g transform="matrix(1,0,0,1,1.32062,-1.79034)">
                    <g transform="matrix(1,0,0,1,-4043.71,3133.65)">
                        <g transform="matrix(1.1431,0,0,1.1431,-642.882,-24.9869)">
                            <g transform="matrix(1,0,0,1,4328.09,64.0117)">
                                <path d="M107.646,100.541L90.114,110.663C89.5,111.018 88.743,111.018 88.128,110.663L70.596,100.541C69.982,100.186 69.603,99.53 69.603,98.821L69.603,78.577C69.603,77.867 69.982,77.211 70.596,76.857L88.128,66.735C88.743,66.38 89.5,66.38 90.114,66.735L107.646,76.857C108.261,77.211 108.639,77.867 108.639,78.577L108.639,98.821C108.639,99.53 108.261,100.186 107.646,100.541M86.092,59.367L65.233,71.41C63.359,72.492 62.204,74.492 62.204,76.656L62.204,100.742C62.204,102.906 63.359,104.906 65.233,105.988L86.092,118.031C87.967,119.113 90.276,119.113 92.15,118.031L113.009,105.988C114.883,104.906 116.038,102.906 116.038,100.742L116.038,76.656C116.038,74.492 114.883,72.492 113.009,71.41L92.15,59.367C90.276,58.285 87.967,58.285 86.092,59.367" style="fill:rgb(119,187,185);fill-rule:nonzero;"/>
                            </g>
                            <g transform="matrix(1,0,0,1,4328.09,64.0117)">
                                <path d="M45.465,100.528L27.886,110.677C27.286,111.024 26.547,111.024 25.947,110.677L8.368,100.528C7.768,100.182 7.398,99.541 7.398,98.849L7.398,78.55C7.398,77.858 7.768,77.217 8.368,76.871L25.947,66.722C26.547,66.375 27.286,66.375 27.886,66.722L45.465,76.871C46.065,77.217 46.435,77.858 46.435,78.55L46.435,98.849C46.435,99.541 46.065,100.182 45.465,100.528M24.23,59.169L2.686,71.608C1.024,72.568 0,74.341 0,76.261L0,121.18C0,123.099 1.024,124.873 2.686,125.833L7.398,128.553L7.398,120.01L7.398,108.512L24.23,118.229C25.893,119.189 27.941,119.189 29.603,118.229L51.147,105.791C52.809,104.831 53.833,103.058 53.833,101.138L53.833,76.261C53.833,74.341 52.809,72.568 51.147,71.608L29.603,59.169C27.941,58.21 25.893,58.21 24.23,59.169" style="fill:rgb(119,187,185);fill-rule:nonzero;"/>
                            </g>
                            <g transform="matrix(1,0,0,1,4328.09,64.0117)">
                                <path d="M131.807,57.618L127.259,60.244C125.495,61.262 124.408,63.145 124.408,65.182L124.408,112.216C124.408,114.253 125.495,116.136 127.259,117.154L131.807,119.78L131.807,57.618Z" style="fill:rgb(119,187,185);fill-rule:nonzero;"/>
                            </g>
                            <g transform="matrix(1,0,0,1,4328.09,64.0117)">
                                <path d="M147.576,57.618L143.028,60.244C141.264,61.262 140.177,63.145 140.177,65.182L140.177,112.216C140.177,114.253 141.264,116.136 143.028,117.154L147.576,119.78L147.576,57.618Z" style="fill:rgb(119,187,185);fill-rule:nonzero;"/>
                            </g>
                            <g transform="matrix(1,0,0,1,4328.09,64.0117)">
                                <path d="M207.052,71.584L185.591,59.193C183.903,58.219 181.823,58.219 180.135,59.193L158.674,71.584C156.986,72.559 155.946,74.36 155.946,76.309L155.946,101.09C155.946,103.039 156.986,104.84 158.674,105.815L182.863,119.78L182.863,114.381C182.863,112.436 181.825,110.638 180.14,109.665L164.383,100.567C163.741,100.197 163.345,99.511 163.345,98.77L163.345,78.629C163.345,77.887 163.741,77.202 164.383,76.832L181.825,66.761C182.467,66.39 183.259,66.39 183.901,66.761L201.343,76.832C201.986,77.202 202.381,77.887 202.381,78.629L202.381,85L187.719,85C185.049,85 182.884,87.165 182.884,89.835L182.884,92.399L209.78,92.399L209.78,76.309C209.78,74.36 208.74,72.559 207.052,71.584" style="fill:rgb(119,187,185);fill-rule:nonzero;"/>
                            </g>
                            <g transform="matrix(1,0,0,1,4328.09,64.0117)">
                                <path d="M268.449,71.366L247.931,59.52C246.158,58.496 243.975,58.496 242.202,59.52L225.548,69.135L225.548,62.555L221.229,65.049C219.323,66.149 218.15,68.182 218.15,70.383L218.15,112.216C218.15,114.253 219.236,116.136 221.001,117.154L225.548,119.78L225.548,78.876C225.548,78.135 225.944,77.45 226.586,77.079L244.029,67.008C244.671,66.638 245.462,66.638 246.104,67.008L263.547,77.079C264.189,77.45 264.585,78.135 264.585,78.876L264.585,119.78L269.132,117.154C270.897,116.136 271.983,114.253 271.983,112.216L271.983,77.487C271.983,74.962 270.636,72.629 268.449,71.366" style="fill:rgb(119,187,185);fill-rule:nonzero;"/>
                            </g>
                        </g>
                        <g transform="matrix(1.00561,0,0,1.00561,-33.3189,-7.34936)">
                            <g transform="matrix(1.63064,0,0,1.63064,4283.31,-27.0789)">
                                <path d="M39.542,158.978L36.843,158.978L36.843,146.743L39.542,146.743L39.542,149.546C40.17,147.372 41.376,146.48 42.896,146.48C43.76,146.48 44.676,146.69 45.07,146.952L44.625,149.441C43.943,149.101 43.341,149.022 42.817,149.022C40.511,149.022 39.542,151.327 39.542,154.577L39.542,158.978Z" style="fill:rgb(119,187,185);fill-rule:nonzero;"/>
                            </g>
                            <g transform="matrix(1.63064,0,0,1.63064,4272.51,-27.0789)">
                                <path d="M72.411,152.821C72.411,150.568 70.734,149.127 68.691,149.127C66.673,149.127 64.997,150.568 64.997,152.821C64.997,155.127 66.673,156.62 68.691,156.62C70.734,156.62 72.411,155.127 72.411,152.821M62.324,152.821C62.324,148.943 65.232,146.481 68.691,146.481C72.175,146.481 75.11,148.943 75.11,152.821C75.11,156.698 72.175,159.24 68.691,159.24C65.232,159.24 62.324,156.698 62.324,152.821" style="fill:rgb(119,187,185);fill-rule:nonzero;"/>
                            </g>
                            <g transform="matrix(1.63064,0,0,1.63064,4261.7,-27.0789)">
                                <path d="M98.836,156.62C100.879,156.62 102.53,155.074 102.53,152.821C102.53,150.568 100.879,149.101 98.836,149.101C97.002,149.101 95.089,150.411 95.089,152.821C95.089,155.205 96.845,156.62 98.836,156.62M92.364,158.978L92.364,140.088L95.063,140.088L95.063,148.498C95.823,147.162 97.447,146.48 99.177,146.48C102.504,146.48 105.281,148.943 105.281,152.874C105.281,156.725 102.451,159.24 99.15,159.24C97.5,159.24 95.823,158.506 95.063,157.196L95.063,158.978L92.364,158.978Z" style="fill:rgb(119,187,185);fill-rule:nonzero;"/>
                            </g>
                            <g transform="matrix(1.63064,0,0,1.63064,4250.9,-27.0789)">
                                <path d="M132.623,152.821C132.623,150.568 130.946,149.127 128.903,149.127C126.885,149.127 125.208,150.568 125.208,152.821C125.208,155.127 126.885,156.62 128.903,156.62C130.946,156.62 132.623,155.127 132.623,152.821M122.536,152.821C122.536,148.943 125.444,146.481 128.903,146.481C132.387,146.481 135.322,148.943 135.322,152.821C135.322,156.698 132.387,159.24 128.903,159.24C125.444,159.24 122.536,156.698 122.536,152.821" style="fill:rgb(119,187,185);fill-rule:nonzero;"/>
                            </g>
                            <g transform="matrix(1.63064,0,0,1.63064,4240.1,-27.0789)">
                                <path d="M157.475,146.742L160.069,146.742L160.069,148.969L157.475,148.969L157.475,158.977L154.776,158.977L154.776,148.969L152.576,148.969L152.576,146.742L154.776,146.742L154.776,142.104L157.475,142.104L157.475,146.742Z" style="fill:rgb(119,187,185);fill-rule:nonzero;"/>
                            </g>
                            <g transform="matrix(1.63064,0,0,1.63064,4229.3,-27.0789)">
                                <path d="M180.468,146.742L177.796,146.742L177.796,158.977L180.468,158.977L180.468,146.742ZM179.132,140.088C180.127,140.088 180.913,140.821 180.913,141.791C180.913,142.76 180.127,143.494 179.132,143.494C178.162,143.494 177.324,142.76 177.324,141.791C177.324,140.821 178.162,140.088 179.132,140.088" style="fill:rgb(119,187,185);fill-rule:nonzero;"/>
                            </g>
                            <g transform="matrix(1.63064,0,0,1.63064,4218.5,-27.0789)">
                                <path d="M204.691,146.48C206.63,146.48 208.385,147.24 209.538,148.602L207.442,150.279C206.787,149.52 205.766,149.1 204.691,149.1C202.648,149.1 200.84,150.541 200.84,152.82C200.84,155.1 202.648,156.646 204.691,156.646C205.766,156.646 206.787,156.2 207.442,155.441L209.565,157.091C208.412,158.454 206.656,159.24 204.691,159.24C201.181,159.24 198.168,156.698 198.168,152.82C198.168,148.943 201.181,146.48 204.691,146.48" style="fill:rgb(119,187,185);fill-rule:nonzero;"/>
                            </g>
                            <g transform="matrix(1.63064,0,0,1.63064,4207.7,-27.0789)">
                                <path d="M227.16,149.703C227.317,147.895 229.282,146.48 231.535,146.48C233.71,146.48 235.832,147.476 235.989,150.096L233.422,150.096C233.317,149.179 232.479,148.786 231.64,148.786C230.959,148.786 230.173,149.048 229.911,149.467C229.701,149.807 229.675,150.201 229.806,150.568C229.964,151.039 230.645,151.327 231.3,151.51L233.186,151.982C235.832,152.637 236.382,154.314 236.382,155.546C236.382,157.904 234.313,159.24 231.509,159.24C229.23,159.24 226.872,157.799 226.819,155.231L229.308,155.231C229.44,156.279 230.304,156.986 231.719,156.986C232.95,156.986 233.893,156.436 233.893,155.519C233.893,154.733 233.081,154.288 232.19,154.078L230.54,153.685C227.946,152.978 227.003,151.668 227.16,149.703" style="fill:rgb(119,187,185);fill-rule:nonzero;"/>
                            </g>
                        </g>
                    </g>
                    <g transform="matrix(1,0,0,1,44.8945,3191.75)">
                        <path d="M36.382,147.406L97.158,224.375L157.933,147.406L36.382,147.406Z" style="fill:rgb(96,128,190);fill-rule:nonzero;"/>
                        <path d="M0,168.282L97.158,224.375L36.382,147.406L0,168.282Z" style="fill:rgb(241,136,127);fill-rule:nonzero;"/>
                        <path d="M97.158,224.375L194.315,168.282L157.933,147.406L97.158,224.375Z" style="fill:rgb(57,101,129);fill-rule:nonzero;"/>
                        <path d="M157.933,147.406L194.315,168.282L194.315,56.094L157.933,147.406Z" style="fill:rgb(253,214,137);fill-rule:nonzero;"/>
                        <path d="M0,168.282L36.382,147.406L0,56.094L0,168.282Z" style="fill:rgb(57,101,129);fill-rule:nonzero;"/>
                        <path d="M97.158,0L0,56.094L97.158,42.549L97.158,0Z" style="fill:rgb(96,128,190);fill-rule:nonzero;"/>
                        <path d="M97.158,0L97.158,42.549L194.315,56.094L97.158,0Z" style="fill:rgb(57,101,129);fill-rule:nonzero;"/>
                        <path d="M0,56.094L36.382,147.406L97.158,42.549L0,56.094Z" style="fill:rgb(253,214,137);fill-rule:nonzero;"/>
                        <path d="M157.933,147.406L194.315,56.094L97.158,42.549L157.933,147.406Z" style="fill:rgb(241,136,127);fill-rule:nonzero;"/>
                        <path d="M157.933,147.406L36.382,147.406L97.158,42.548L157.933,147.406Z" style="fill:rgb(119,187,185);fill-rule:nonzero;"/>
                    </g>
                </g>
            </g>
        </g>
    </g>
</svg>
